X:1
T:Mist Covered Mountain, The
M:6/8
L:1/8
P:A dorian
K: Ador
EAA ABd|edB AGE|~G3 GAB|dBA GED|
EAA ABd|e ~A2 ABd|efg dBA|1 BAG A2G:|2 BAG A2a ||
a|age a2b|age edB|AGE G2A|BAB GED|
age a2b|age edB|AGE G2A|BAG A2a|
age a2b|age edB|AGE G2A|BAB GED|
EDE G2A|BAG Bcd|efg dBG|BAG A2|]
T:
T:
T:
T:
T:
